X: 158
T: The Blackberry Blossom
M: 2/4
L: 1/16
Q: 1/4=97
B: George Petrie Collection, 1855, 1882
K: Cm % 3 flats
V: 1
%
e>c | B>GFA GEEF | GAGF GBec |
BGFA GEEG | Fffg f2 ec |
B>GFA GEEF | GAGF GBec |
BGFA GEEF | Gcc=B c2 c>d |
e>def gagf | edef gccd |
edef efge | cffg f2 cd |
edef gagf | edef gcca |
gefd edc_B | Gcc=B c2 |]

